X:1
T:MelodyTimothy
L:1/64
%            End of header, start of tune body:
V:0
%%MIDI program 0
K:C
M:4/4
 C39 C25-| C13 A21 c20 G10-| G7 D19 A,20 D18-| D1 G17 z20 z14 z12-| z2]
V:1
%%MIDI program 115
K:C
M:4/4
 A19 A19 A19 A7-| A12 A1 A3 A3 A3 z15 z15 z12-| z3 A4 A18 A18 z18 A3-|
 A6 A9 A3 z12 A12 z12 A6 A4-| A2]
